X: 1248
T: Keremkani Efendim
C: Tanburî Mustafa Çavuş
O: Turkey
F: http://compmusic.upf.edu/node/140
N: buselik--sarki--duyek--keremkani_efendim--tanburi_mustafa_cavus
N: makam= buselik
N: form= sarki
N: usul= duyek = 8/4
M: 8/4
L: 1/16
K: C    
Q: 1/4=120
%%MIDI tuningsystem comma53
z2 e4 f2 g3f ef ga  | f2 g4 a_b ag fe d2 z2  | \
w:   |   | 
de dc de dc de fg ef de  | 
w:   | 
z2 c4 B2 c3B cB c2  | z2 c4 B2 B3A ^G2 A2  | \
w:   |   | 
Bc/d/ cB BA A^G A3f e^d e2  | 
w:   | 
z2 e4 f2 g3f ef ga  | f2 g4 a_b ag fe d2 z2  | \
w:   |   | 
de dc de dc de fg ef de  | 
w:   | 
c2 a2 g4 g^f f_e ed d2  | cB c2 z2 c4 B2 c2 B3A ^G2 A2 Bc/d/ cB BA AG A3f e^d e2 z2 e4 ^gf f3e e3d z2 e4 d2 ef  | 
w:   |   | 
e^d cB A2 z2 e4 ^gf f3e e3d z2 ga b2 ag gf2e ed e2 z2 e4 f2 g2  | 
w:   | 
a2 b2 ab d'c' ba ^gf e^d ef  | ^ga gf e2 z2 e4 f2 =g3f ef ga f2 g4 a_b ag  | 
w:   |   | 
fe d2 z2 de dc de dc de  | fg ef de c2 a2 g4 g^f  | 
w:   |   | 
^f_e ed d2 cB c2 z2 c4  | B2 B3A ^G2 A2 Bc/d/ cB BA  | 
w:   |   | 
A^G c6 z2 cB cd cB  | A2 Bc/d/ cB BA A^G A6  | 
w:   |   | 
e2 dc Bc B2 c2 d2 cd e4 ea ^ga ea ga e3d ed  | 
w:   | 
c2 z2 d4 ef ag fe d2  | cB cB cd cB A2 Bc/d/ cB BA  | 
w:   |   | 
A^G A6 z2 ed ef ed  | c2 dc de dc B2 cB cd cB  | 
w:   |   | 
AG A2 B2 c2 de a2 gf ed  | c2 cB cd cB A2 Bc/d/ cB BA  | 
w:   |   | 
A^G A4 z2 e2 e6  | d2 ed cB A^G FE z2 d4  | \
w:   |   | 
cB c3B cd e2 z2 f4  | 
w:   | 
ef ag fe dc BA z2 G4  | ^FG _BA GF GF G2 c=B cd cB  | 
w:   |   | 
A2 ed ef ed c2 B3A cB  | A^G A3E FG A2 |
w:   |   | 


